X: 8
T: The Lads Of Laois
R: reel
M: 4/4
L: 1/8
K: Emin
EB,~B,2 EGFE|DA,~A,2 DEFD|E2FD EFGA|B2ec dBAF|
|1 EB,~B,2 EGFE|DA,~A,2 DEFD|E2BE dEBE|DEFA BE~E2:||
|2 E2B,E GE B,E|D2A,D FD A,D|(3Bcd eB dBAF|DEFA BE~E2:||
eB~B2 egfe|defa gfed|(3Bcd ef ~g3e|fgaf gfed|
eB~B2 GBFB|EBBA (3Bcd ef|~g3e ~f3d|1 efed BABd :|2 efed BAFD:||


Tune 58	Setting 12496

